src/lib/packages/icons/src/assets/filled/file-list-search.svg

<svg xmlns="http://www.w3.org/2000/svg" width="24" height="24" fill="none"><path fill="currentColor" d="M12.75 6V3.75l4.5 4.5H15c-1.58 0-2.25-.67-2.25-2.25Zm0 11.92c0 .96.26 1.86.73 2.63.12.2-.04.45-.27.45H6c-2 0-3-1-3-3V6c0-2 1-3 3-3h5.25v3c0 2.42 1.33 3.75 3.75 3.75h3v2.71c0 .16-.13.29-.29.3-2.72.15-4.96 2.41-4.96 5.16Zm-5-1.92a.75.75 0 1 0-1.5 0 .75.75 0 0 0 1.5 0Zm0-4a.75.75 0 1 0-1.5 0 .75.75 0 0 0 1.5 0Zm4 4a.75.75 0 0 0-.75-.75H9.5a.75.75 0 0 0 0 1.5H11a.75.75 0 0 0 .75-.75ZM14 12.75a.75.75 0 0 0 0-1.5H9.5a.75.75 0 0 0 0 1.5H14Zm8.53 9.78a.748.748 0 0 1-1.06 0l-1.55-1.549a3.641 3.641 0 0 1-2.003.602 3.671 3.671 0 0 1-3.667-3.667 3.671 3.671 0 0 1 3.667-3.667 3.67 3.67 0 0 1 3.666 3.667c0 .74-.224 1.427-.603 2.003l1.55 1.55a.75.75 0 0 1 0 1.061Zm-2.447-4.613a2.17 2.17 0 0 0-2.166-2.167 2.17 2.17 0 0 0-2.167 2.167 2.17 2.17 0 0 0 2.167 2.167 2.17 2.17 0 0 0 2.166-2.167Z"/></svg>

<svg width="24" height="24" viewBox="0 0 24 24" fill="none" xmlns="http://www.w3.org/2000/svg">
<path d="M12.75 6V3.75L17.25 8.25H15C13.42 8.25 12.75 7.58 12.75 6ZM12.75 17.92C12.75 18.88 13.01 19.78 13.48 20.55C13.6 20.75 13.44 21 13.21 21H6C4 21 3 20 3 18V6C3 4 4 3 6 3H11.25V6C11.25 8.42 12.58 9.75 15 9.75H18V12.46C18 12.62 17.87 12.75 17.71 12.76C14.99 12.91 12.75 15.17 12.75 17.92ZM7.75 16C7.75 15.586 7.414 15.25 7 15.25C6.586 15.25 6.25 15.586 6.25 16C6.25 16.414 6.586 16.75 7 16.75C7.414 16.75 7.75 16.414 7.75 16ZM7.75 12C7.75 11.586 7.414 11.25 7 11.25C6.586 11.25 6.25 11.586 6.25 12C6.25 12.414 6.586 12.75 7 12.75C7.414 12.75 7.75 12.414 7.75 12ZM11.75 16C11.75 15.586 11.414 15.25 11 15.25H9.5C9.086 15.25 8.75 15.586 8.75 16C8.75 16.414 9.086 16.75 9.5 16.75H11C11.414 16.75 11.75 16.414 11.75 16ZM14 12.75C14.414 12.75 14.75 12.414 14.75 12C14.75 11.586 14.414 11.25 14 11.25H9.5C9.086 11.25 8.75 11.586 8.75 12C8.75 12.414 9.086 12.75 9.5 12.75H14ZM22.53 22.53C22.384 22.676 22.192 22.75 22 22.75C21.808 22.75 21.616 22.677 21.47 22.53L19.9199 20.981C19.3429 21.359 18.657 21.583 17.917 21.583C15.895 21.583 14.25 19.938 14.25 17.916C14.25 15.894 15.895 14.249 17.917 14.249C19.938 14.249 21.583 15.894 21.583 17.916C21.583 18.656 21.359 19.343 20.98 19.919L22.53 21.469C22.823 21.762 22.823 22.237 22.53 22.53ZM20.083 17.917C20.083 16.722 19.111 15.75 17.917 15.75C16.722 15.75 15.75 16.722 15.75 17.917C15.75 19.112 16.722 20.084 17.917 20.084C19.111 20.083 20.083 19.111 20.083 17.917Z" fill="currentColor"/>
</svg>
